!!!COM: Palestrina, Giovanni Perluigi da
!!!OPR: Missa Virtute magna
!!!OMD: Credo
!!!OTL: Crucifixus
**kern	**kern	**kern
*Itenor	*Icalto	*Icant
!Tenor	!Altus	!Cantus
*clefGv2	*clefG2	*clefG2
*k[]	*k[]	*k[]
*G:mix	*G:mix	*G:mix
*M4/2	*M4/2	*M4/2
=99	=99	=99
0r	1.d	1r
.	.	[1a
.	2d	.
=100	=100	=100
0r	1f	2a]
.	.	2a
.	1e	1cc
=101	=101	=101
0r	2r	1b
.	1g	.
.	.	2r
.	2g	[2dd
=102	=102	=102
0r	2f	2dd]
.	2f	2dd
.	4e	2cc
.	4d	.
.	4e	2cc
.	4f	.
=103	=103	=103
1r	1.g	4b
.	.	4a
.	.	4b
.	.	4cc
[1d	.	1dd
.	4f	.
.	4e	.
=104	=104	=104
2d]	2.f	2a
2d	.	2.a
.	4g	.
1f	1a	.
.	.	4b
.	.	4cc
.	.	4dd
=105	=105	=105
1e	2.g	4ee
.	.	4ff
.	.	1gg
.	4a	.
2r	2b-	.
[2d	4a	4ff
.	4g	4ee
=106	=106	=106
2d]	2a	2ff
2d	2f	2dd
2c	2g	2ee
2c	[2a	2cc
=107	=107	=107
4B	2a]	2.dd
4A	.	.
4B	1g	.
4c	.	8cc
.	.	8b
1d	.	1a
.	2f#	.
=108	=108	=108
2.G	[0g	1b
4A	.	.
4B	.	1r
4G	.	.
[2c	.	.
=109	=109	=109
2c]	1g]	1dd
2B	.	.
1c	1r	2ee
.	.	2ee
=110	=110	=110
1G	1g	2b
.	.	2dd
1r	2a	2.cc
.	2a	.
.	.	4b
=111	=111	=111
1r	2e	2g
.	2g	2b
1d	2.f	1a
.	4e	.
=112	=112	=112
2e	4c	1g
.	4d	.
2e	4e	.
.	4f	.
2B	2g	2r
2d	2f	2dd
=113	=113	=113
2.c	2.e	2ee
.	.	2ee
4B	4f	.
2G	1g	2b
2B	.	2dd
=114	=114	=114
4A	1c	2.cc
4B	.	.
4c	.	.
4d	.	4b
4e	1r	2g
4f	.	.
[2g	.	2b
=115	=115	=115
2g]	1r	1a
2f	.	.
1e	2r	1g
.	[2g	.
=116	=116	=116
1d	2g]	2r
.	2f	1dd
1r	2d	.
.	2e	2cc
=117	=117	=117
0r	2f	2a
.	4e	2b
.	4d	.
.	4e	2cc
.	4f	.
.	4g	4b
.	4e	4cc
=118	=118	=118
1r	4f	4dd
.	4g	4b
.	2a	4cc
.	.	4dd
2r	2.g	4ee
.	.	4dd
2G	.	[2dd
.	4f	.
=119	=119	=119
2A	1e	2dd]
2A	.	2cc#
1B	[1d	1dd
=120	=120	=120
1G	1d]	1r
2.c	1r	1g
4B	.	.
=121	=121	=121
2c	0r	2a
2.d	.	2a
.	.	2b
8c	.	.
8d	.	.
2e	.	2g
=122	=122	=122
2c	0r	2.cc
2.f	.	.
.	.	4b
.	.	2cc
4e	.	.
2f	.	[2dd
=123	=123	=123
2g	1r	2dd]
2.a	.	4cc
.	.	4b
.	1c	2.cc
4g	.	.
[2g	.	.
.	.	4b
=124	=124	=124
2g]	2d	1a
2f#	2d	.
[1g	1e	1g
=125	=125	=125
1g]	1c	2r
.	.	2.cc
1r	2.f	.
.	.	4b
.	.	2cc
.	4e	.
=126	=126	=126
1r	2f	2.dd
.	2.g	.
.	.	4cc
1G	.	4b
.	4f	4a
.	2d	2b
=127	=127	=127
1c	4e	1g
.	4d	.
.	4e	.
.	4f	.
2B	2g	1r
2A	2f	.
=128	=128	=128
2.c	1e	2r
.	.	2g
4d	.	.
2e	1r	1cc
2f	.	.
=129	=129	=129
1d	1r	2b
.	.	2a
1c	2r	[1cc
.	2c	.
=130	=130	=130
0r	1f	2cc]
.	.	2dd
.	2e	2ee
.	2d	[2ff
=131	=131	=131
0r	2.f	2ff]
.	.	4ee
.	4g	4dd
.	2a	2cc
.	2b-	[2dd
=132	=132	=132
1r	2g	2dd]
.	2.a	2cc
1G	.	1b
.	4g	.
.	[2g	.
=133	=133	=133
1d	2g]	1a
.	2f#	.
1e	1g	2r
.	.	2g
=134	=134	=134
2d	0r	1dd
2B	.	.
1c	.	1ee
=135	=135	=135
2B	1r	2dd
2G	.	2b
4A	1c	1cc
4B	.	.
4c	.	.
4d	.	.
=136	=136	=136
4e	1g	1b
4f	.	.
1g	.	.
.	1a	1r
2f#	.	.
=137	=137	=137
1g	2g	2r
.	2e	2g
1r	1f	4a
.	.	4b
.	.	4cc
.	.	4dd
=138	=138	=138
0r	2e	4ee
.	.	4ff
.	2c	4gg
.	.	4ee
.	4d	2.ff
.	4e	.
.	4f	.
.	4g	4ee
=139	=139	=139
1r	4a	2cc
.	4b	.
.	1cc	2ee
2r	.	[1dd
2g	4b	.
.	4a	.
=140	=140	=140
2g	2b	1dd]
2f#	2a	.
[1g	2b	1r
.	2g	.
=141	=141	=141
2g]	1a	2r
2f	.	2dd
2d	1r	2dd
2e	.	2cc#
=142	=142	=142
2f	0r	1.dd
2.g	.	.
4f	.	.
4e	.	2cc
4d	.	.
=143	=143	=143
2c	2r	2a
2B	2g	2b
1A	2g	2.cc
.	2f#	.
.	.	8b
.	.	8a
=144	=144	=144
1G	1.g	1b
2r	.	[1a
2d	2f	.
=145	=145	=145
2d	2d	0a]
2c#	2e	.
[1d	[1f	.
=146	=146	=146
2d]	2f]	0r
2c	4e	.
.	4d	.
2A	4e	.
.	4f#	.
2B	[2g	.
=147	=147	=147
2c	2g]	2r
2d	2f#	2dd
1e	2r	2dd
.	2g	2cc#
=148	=148	=148
1d	2g	1.dd
.	2f#	.
2r	2g	.
2g	2c	2cc
=149	=149	=149
2g	1d	1a
2f#	.	.
[1g	2.G	2.b
.	4A	4cc
=150	=150	=150
2g]	4B	4dd
.	4c	4ee
2f	4d	1dd
.	4e	.
2d	4f	.
.	4g	.
2f	[2a	[2cc
=151	=151	=151
1e	4a]	4cc]
.	4g	4b
.	1g	2g
1d	.	1a
.	2f#	.
=152	=152	=152
[0G	[0g	[0b
=153	=153	=153
0G]	0g]	0b]
*-	*-	*-
!!!CDT: 1525/^1526/-1594/2/2
!!!OCY: Italia
!!!AGN: Mass (Parody)
!!!AST: renaissance, vocal
!!!ASW: Motet 1532 (Lasson)
!!!PWK: Masses, Book I
!!!RNB: Cadence finals: D
!!!YOR: Le Opere Complete, v. 1, p. 62
!!!YOO: Rome, Italy: Fratelli Scalera
!!!END: 1992//
!!!EED: John Miller
!!!YEC: Copyright 2000, John Miller
!!!YEN: United States of America
!!!YEM: Rights to all derivative electronic formats reserved.
!!!YEM: Refer to licensing agreement for further details.
!!!YEM: This file must be accompanied by the licensing agreement.
!!!YEM: A copy of the licensing agreement may be found at http://www.music-cog.ohio-state.edu/HumdrumDatabases/Palestrina/license.txt
!!!EMD: converted to Humdrum by Bret Aarden
